X:28
T:The Shoemakker
Z:Jack Campin, http://www.campin.me.uk/
S:Northumbrian Minstrelsy
M:2/4
L:1/8
K:Bb
 F    | F B  c  e    |d B  c     \
 F    | F B  c  d    |B> c B F/
   F/ | F B  c  e    |d B  c     \
(d/e/)| f> d e>   c  |B2   A F||
       _A2   A (G/F/)|G G  G F/  \
   G/ |_A A  A  G    |B c  B G/
   G/ |_A A  A (G/F/)|G G  G     \
(F/G/)| F B  c  e    |B2   A F|]

